X:302
T: Liangtiaobanqiang naogeming
N: C1799
O: China,Jiangxi Yiyang
S: IV, 222]
R: Xiaodiao]
M: 2/4
L: 1/16
K: D
B2A2B2d2 | A2B2A4 |
A3Bd4 | d2Bde2dB | A4B4 |
A2B2A2F2 | A2BFE4 |
A2B2A2F2 | E4F4 |
B2A2B2d2 | A2B2A4 |
A3Bd4 | d2Bde2dB | A4B4 |
A2B2A2F2 | A2BFE4 |
A2B2A2F2 | E4F4

@@@ Tune index: 6857
